icons/BatteryHorizontal_50_filled.svg

<svg width="24" height="24" viewBox="0 0 24 24" fill="none" xmlns="http://www.w3.org/2000/svg">
<path fill-rule="evenodd" clip-rule="evenodd" d="M21.5,14.25c0,0.4143 -0.3358,0.75 -0.75,0.75c-0.4142,0 -0.75,-0.3357 -0.75,-0.75v-4.49996c0,-0.41422 0.3358,-0.75 0.75,-0.75c0.4142,0 0.75,0.33578 0.75,0.75zM16,6.25004c1.5188,0 2.75,1.23122 2.75,2.75v5.99996c0,1.5188 -1.2312,2.75 -2.75,2.75h-10.5c-1.51878,0 -2.75,-1.2312 -2.75,-2.75v-5.99996c0,-1.51879 1.23122,-2.75 2.75,-2.75zM5.5,9.75004v4.49996c0,0.4143 0.33579,0.75 0.75,0.75c0.41421,0 0.75,-0.3357 0.75,-0.75v-4.49996c0,-0.41422 -0.33579,-0.75 -0.75,-0.75c-0.41421,0 -0.75,0.33578 -0.75,0.75zM10,9.75004c0,-0.41422 -0.33579,-0.75 -0.75,-0.75c-0.41421,0 -0.75,0.33578 -0.75,0.75v4.49996c0,0.4143 0.33579,0.75 0.75,0.75c0.41421,0 0.75,-0.3357 0.75,-0.75z" fill="#002B51"/>
</svg>

<svg width="24" height="24" viewBox="0 0 24 24" fill="none" xmlns="http://www.w3.org/2000/svg">
<path fill-rule="evenodd" clip-rule="evenodd" d="M21.5 9.75004C21.5 9.33582 21.1642 9.00004 20.75 9.00004C20.3358 9.00004 20 9.33582 20 9.75004V14.25C20 14.6643 20.3358 15 20.75 15C21.1642 15 21.5 14.6643 21.5 14.25V9.75004ZM16 6.25004C17.5188 6.25004 18.75 7.48126 18.75 9.00004V15C18.75 16.5188 17.5188 17.75 16 17.75H5.5C3.98122 17.75 2.75 16.5188 2.75 15V9.00004C2.75 7.48125 3.98122 6.25004 5.5 6.25004H16ZM6.25 9.00004C6.66421 9.00004 7 9.33582 7 9.75004V14.25C7 14.6643 6.66421 15 6.25 15C5.83579 15 5.5 14.6643 5.5 14.25V9.75004C5.5 9.33582 5.83579 9.00004 6.25 9.00004ZM10 9.75004C10 9.33582 9.66421 9.00004 9.25 9.00004C8.83579 9.00004 8.5 9.33582 8.5 9.75004V14.25C8.5 14.6643 8.83579 15 9.25 15C9.66421 15 10 14.6643 10 14.25V9.75004Z" fill="#002B51"/>
</svg>
